X: 39653
T: Templehouse, The
R: jig
M: 6/8
K: Eminor
G2F|E3 GEE|B,EE GEE|D3 FED|FAD FED|
E3 GEE|B,EE GEE|BdB AGF|GBG E2B,|
E3 GFE|B,EE GFE|D3 FED|FAD FED|
E3 GEE|B,EE GEE|BdB AGF|GEE E2e|
eBe ~B3|eBe g2e|fdd Add|Adf afd|
eBe ~B3|eBe ~g3|fdB AGF|GBG E2A|
eBe ~B3|eBe g2e|fdd Add|faa {b}agf|
efe ~B3|eBe ~g3|fdB AGF|GBG E2B,|

